material/.icons/material/flask-empty.svg

<svg xmlns="http://www.w3.org/2000/svg" viewBox="0 0 24 24"><path d="M6 22a3 3 0 01-3-3c0-.6.18-1.16.5-1.63L9 7.81V6a1 1 0 01-1-1V4a2 2 0 012-2h4a2 2 0 012 2v1a1 1 0 01-1 1v1.81l5.5 9.56c.32.47.5 1.03.5 1.63a3 3 0 01-3 3H6z"/></svg>

<?xml version="1.0" encoding="UTF-8"?><!DOCTYPE svg PUBLIC "-//W3C//DTD SVG 1.1//EN" "http://www.w3.org/Graphics/SVG/1.1/DTD/svg11.dtd"><svg xmlns="http://www.w3.org/2000/svg" xmlns:xlink="http://www.w3.org/1999/xlink" version="1.1" id="mdi-flask-empty" width="24" height="24" viewBox="0 0 24 24"><path d="M6,22A3,3 0 0,1 3,19C3,18.4 3.18,17.84 3.5,17.37L9,7.81V6A1,1 0 0,1 8,5V4A2,2 0 0,1 10,2H14A2,2 0 0,1 16,4V5A1,1 0 0,1 15,6V7.81L20.5,17.37C20.82,17.84 21,18.4 21,19A3,3 0 0,1 18,22H6Z" /></svg>
